X:1
T:Eternity! Where?
T:Eternity! Where?
T:John Robson Sweney
T:Anonymous, 1886
T:Public Domain Courtesy of the Cyber Hymnal™
C:John Robson Sweney
Z:Public Domain
Z:Courtesy of the Cyber Hymnal™
%%score 1 ( 2 3 )
L:1/8
Q:1/4=105
M:3/4
K:E
V:1 treble 
V:2 bass 
V:3 bass 
V:1
 [EG]2 | [GB]3 [FA] [EG]2 | [FA]4 ([FA][FA]) | [FA]3 [EG] [DF]2 | [EG]4 [EG][EG] | %5
w: 1.~“E-|ter- ni- ty!|Where?” It *|floats in the|air; A- mid|
w: 2.~“E-|ter- ni- ty!|Where?” Oh!~E- *|ter- ni- ty!|where? With re-|
w: 3.~“E-|ter- ni- ty!|Where?” Oh! *|how can you|share Th- e|
w: 4.~“E-|ter- ni- ty!|Where?” Oh! *|friend, have a|care; So- on|
w: 5.~“E-|ter- ni- ty!|Where?” Oh! *|E- ter- ni-|ty! Where? Friend,|
 [Ec]3 [Ec] [Ec]2 | [EB]2 [EB]2 [EG]2 | [EF]3 [EG] [EF]2 | [DF]4 [DF]2 | [DF]3 [EG] [FA]2 | %10
w: cla- mor or|si- lence it|ev- er is|there! The|ques- tion so|
w: deemed ones in|glo- ry? Or|fiends in des-|pair? With|one or the|
w: world’s gid- dy|plea- sures, or|heed- elss- ly|dare? Do|aught till you|
w: God will no|lon- ger His|judg- ment for-|bear; This|day may de-|
w: sleep not, nor|take in the|world a- ny|share, Till~you|ans- wer this|
 [FA]2 [EG]2 [EG]2 | [^^Fc]3 [Fc] .[Fc]2 | [GB]4 [GB]2 | [Ge]2 [EG]2 [Ec]2 | %14
w: sol- emn— “E-|ter- ni- ty!|Where?” The|ques- tion so|
w: o- ther— “E-|ter- ni- ty!|Where?” With|one or the|
w: set- tle— “E-|ter- ni- ty!|Where?” Do|aught till you|
w: cide your “E-|ter- ni- ty!|Where?” This|day may de-|
w: ques- tion— “E-|ter- ni- ty!|Where?” Till~you|ans- wer this|
 [EB]2 [EA]2 !fermata![GB]2 |"^rit. e dim." [FB]3 [EB] [DB]2 | [EB]4 |] %17
w: sol- emn— “E-|ter- ni- ty!|Where?”|
w: o- ther— “E-|ter- ni- ty!|Where?”|
w: set- tle— “E-|ter- ni- ty!|Where?”|
w: cide your “E-|ter- ni- ty!|Where?”|
w: ques- tion— “E-|ter- ni- ty!|Where?”|
V:2
 [E,B,]2 | [E,B,]3 [E,B,] [E,B,]2 | [B,,B,]4 ([B,,B,][B,,B,]) | [B,,B,]3 [B,,B,] [B,,B,]2 | %4
 [E,B,]4 [E,B,][E,B,] | A,3 A, A,2 | [G,B,]2 [G,B,]2 [E,B,]2 | [C,^A,]3 [C,A,] [C,A,]2 | %8
 [B,,B,]4 [B,,B,]2 | [B,,B,]3 [B,,B,] [B,,B,]2 | [E,B,]2 [E,B,]2 [E,B,]2 | %11
 [E,^A,]3 [E,A,] .[E,A,]2 | [E,B,]4 [E,B,]2 | [E,B,]2 [E,B,]2 [E,A,]2 | %14
 [E,G,]2 [E,B,]2 !fermata![E,B,]2 | [B,,A,]3 [B,,G,] [B,,F,]2 | [E,G,]4 |] %17
V:3
 x2 | x6 | x6 | x6 | x6 | A,3 A, A,2 | x6 | x6 | x6 | x6 | x6 | x6 | x6 | x6 | x6 | x6 | x4 |] %17

